X: 1447
T: Necibemin İkidir Kürkü
C: (Anonim)
O: Turkey
F: http://compmusic.upf.edu/node/140
N: hicaz--turku--aksak--necibemin_ikidir--istanbul
N: makam= hicaz
N: form= turku
N: usul= aksak = 9/8
M: 9/8
L: 1/16
K: C _7/8B ^f ^c 
Q: 1/4=156
%%MIDI tuningsystem comma53
e3d e2=f2 gfed c2d2 e2 | c3Bc2 d2cB BAA4z2  | 
w:  ARANAĞME  |   | 
e3d e2=f2 gfed c2d2 e2 | c3Bc2 d2cB BAA4z2  | 
w:  ARANAĞME  |   | 
z4 d2d2 =fedc d4 z2 | e2 =f2g2 feed {e}dcd4z2  | \
w:  Ne ci be *  *  *  min   |  i *  ki dir  *  kür *  *  *  *  kü    | 
g=fed c2d2 cBAG A2B2 d2 | 
w:  Vay  *  *  *  bi ri  sa *  *  *  mur   | 
c3AB2 d2cB BAA6  | g=fed c2d2 cBAG A2B2 d2 | 
w:  bi *  ri  de  til *  *  *  ki    |  Vay  *  *  *  bi ri  sa *  *  *  mur   | 
c3AB2 d2cB BAA6  | z4 d2d2 =fedc d4 z2 | \
w:  bi *  ri  de  til *  *  *  ki    |  Ne ci be  *  *  *  kız   | 
e2 =f2g2 feed {e}dcd4z2  | 
w:  ev *  de  *  *  mi  *  *  *  *  ki    | 
g=fed c2d2 cBAG A2B2 d2 | c3AB2 d2cB BAA6  | 
w:  Vay  *  *  *  Ne ci bem  *  *  *  Ne ci bem    |  Al *  lı dır  Ne *  ci *  bem    | 
g=fed c2d2 cBAG A2B2 d2 | c3AB2 d2cB BAA6  | 
w:  Üç  *  *  *  ka rış  ger *  *  *  dan    |  Uy *  gun dur  Ne *  ci *  bem    | 
zdd2 d2d2 dcd2 dcd4 | zB2cc2 c2c2 BAc2 d2z2  | 
w:  E dâ sı na  yan *  dım  yan *  dım    |  Uy ku sun dan  u yan *  dır dım    | 
zA2B B2B2 A2B2 dcBA G2 | A2 B2e2 dccB BAA6  | 
w:  Kız  Ne ci bem  Ne ci bem    |  Ay na lı dır  *  Ne *  ci *  bem    | 
zdd2 d2d2 dcd2 dcd4 | zB2cc2 c2c2 BAc2 d2z2  | 
w:  E dâ sı na  yan *  dım  yan *  dım    |  Uy ku sun dan  u yan *  dır dım    | 
zA2B B2B2 A2B2 dcBA G2 | A2 B2e2 dccB BAA6  | 
w:  Kız  Ne ci bem  Ne ci bem    |  Ay na lı dır  *  Ne *  ci *  bem    | 
e3d e2=f2 gfed c2d2 e2 | c3Bc2 d2cB BAA4z2  | 
w:  ARANAĞME  |   | 
e3d e2=f2 gfed c2d2 e2 | c3Bc2 d2cB BAA4z2  | 
w:  ARANAĞME  |   | 
z4 d2d2 =fedc d4 z2 | e2 =f2g2 feed {e}dcd4z2  | \
w:  Ne ci be *  *  *  min   |  i *  ki dir  *  kür *  *  *  *  kü    | 
g=fed c2d2 cBAG A2B2 d2 | 
w:  Vay  *  *  *  bi ri  sa *  *  *  mur   | 
c3AB2 d2cB BAA6  | g=fed c2d2 cBAG A2B2 d2 | 
w:  bi *  ri  de  til *  *  *  ki    |  Vay  *  *  *  bi ri  sa *  *  *  mur   | 
c3AB2 d2cB BAA6  | z4 d2d2 =fedc d4 z2 | \
w:  bi *  ri  de  til *  *  *  ki    |  Ne ci be  *  *  *  kız   | 
e2 =f2g2 feed {e}dcd4z2  | 
w:  ev *  de  *  *  mi  *  *  *  *  ki    | 
g=fed c2d2 cBAG A2B2 d2 | c3AB2 d2cB BAA6  | 
w:  Vay  *  *  *  Ne ci bem  *  *  *  Ne ci bem    |  Al *  lı dır  Ne *  ci *  bem    | 
g=fed c2d2 cBAG A2B2 d2 | c3AB2 d2cB BAA6  | 
w:  Üç  *  *  *  ka rış  ger *  *  *  dan    |  Uy *  gun dur  Ne *  ci *  bem    | 
zdd2 d2d2 dcd2 dcd4 | zB2cc2 c2c2 BAc2 d2z2  | 
w:  E dâ sı na  yan *  dım  yan *  dım    |  Uy ku sun dan  u yan *  dır dım    | 
zA2B B2B2 A2B2 dcBA G2 | A2 B2e2 dccB BAA6  | 
w:  Kız  Ne ci bem  Ne ci bem    |  Ay na lı dır  *  Ne *  ci *  bem    | 
zdd2 d2d2 dcd2 dcd4 | zB2cc2 c2c2 BAc2 d2z2  | 
w:  E dâ sı na  yan *  dım  yan *  dım    |  Uy ku sun dan  u yan *  dır dım    | 
zA2B B2B2 A2B2 dcBA G2 | A2 B2e2 dccB BAA6  | 
w:  Kız  Ne ci bem  Ne ci bem    |  Ay na lı dır  *  Ne *  ci *  bem    | 
|


